X:1
T:Title
%%score { ( 1 4 ) | ( 2 3 ) }
L:1/8
M:6/8
K:F
V:1 treble nm="Grand Piano"
V:4 treble 
V:2 bass 
V:3 bass 
V:1
 z3 z2[Q:1/4=100] C | F>EF G2 G | A2 B c3 | F2 F FG[=B,FA] | [CEG]3- [CEG]2 C | F>EF G2 G | %6
 A2 B c3 | [CG]2 [CEc] [DF=B][Ec][Fd] |[M:5/8] [Ec]-[Ec]- [Ec]3 |[M:1/8] z | %10
[M:3/4] [GB]2 [GB][GB] [FA][EG] | A3 c2 c | [Fd]2 [Fd]c A[=B,F] | z2 z2 z .[CA] | F2 .F2 GA | %15
[M:7/8] [DB]3 [Fd]3 [Fd] |[M:3/4] cA [A,F] [CFA]2 [B,EG] |[M:5/8] [A,F]-[A,F]- [A,F]3 |] %18
V:2
 z3 z2 C, | F,>E,F, G,2 G, | A,2 B, C3 | [F,A,C]2 [F,A,C] DEG, | C,3- C,2 C, | F,>E,F, G,2 G, | %6
 A,2 B, C3 | E,2 C, z C[G,=B,] |[M:5/8] [C,C]-[C,C]- [C,C]3 |[M:1/8] [C,C] | %10
[M:3/4] [C,C]2 [C,C] [C,C]2 [C,C] | F3 A2[K:bass] [F,A,F] | z2 z A, z2 | C,4- C, z/ B,/ | %14
 [F,A,]2 [F,A,]A, B,[F,CF] |[M:7/8] [B,,B,]-[B,,B,]-[B,,B,]- [B,,B,]3 [B,,B,] |[M:3/4] .A,2 z2 z2 | %17
[M:5/8] F,-F,- F,3 |] %18
V:3
 x6 | x6 | x6 | z3 .[D,A,]3 | x6 | x6 | x6 | z3 .G,3 |[M:5/8] x5 |[M:1/8] x |[M:3/4] x6 | %11
 [F,C]6[K:bass] | [B,,B,]2 [D,B,][F,F]- [F,CF]D, | z2 z2 z C, | z2 z .F,3 |[M:7/8] x7 | %16
[M:3/4] [F,F]-[F,CF] F, C,2 C, |[M:5/8] x5 |] %18
V:4
 x6 | x6 | x6 | x6 | x6 | x6 | x6 | x6 |[M:5/8] x5 |[M:1/8] x |[M:3/4] x6 | x6 | x6 | %13
 [CEG]4- [CEG]E/-[EG]/ | z2 z .F3 |[M:7/8] x7 |[M:3/4] x6 |[M:5/8] x5 |] %18

